symbols/web/water_damage/materialsymbolsoutlined/water_damage_wght700fill1_20px.svg

<svg xmlns="http://www.w3.org/2000/svg" height="20" width="20"><path d="M3.854 16.979v-6.521H.833L10 2.083l9.167 8.375h-3.021v6.521ZM10 13.854q.917 0 1.552-.635.636-.636.636-1.552 0-.542-.292-1.198-.292-.657-1.146-1.927-.167-.25-.344-.354-.177-.105-.406-.105-.229 0-.406.105-.177.104-.344.354-.854 1.27-1.146 1.927-.292.656-.292 1.198 0 .916.636 1.552.635.635 1.552.635Z"/></svg>

<svg xmlns="http://www.w3.org/2000/svg" height="20" width="20"><path d="M3.854 16.979V10.458H0.833L10 2.083L19.167 10.458H16.146V16.979ZM10 13.854Q10.917 13.854 11.552 13.219Q12.188 12.583 12.188 11.667Q12.188 11.125 11.896 10.469Q11.604 9.812 10.75 8.542Q10.583 8.292 10.406 8.188Q10.229 8.083 10 8.083Q9.771 8.083 9.594 8.188Q9.417 8.292 9.25 8.542Q8.396 9.812 8.104 10.469Q7.812 11.125 7.812 11.667Q7.812 12.583 8.448 13.219Q9.083 13.854 10 13.854Z"/></svg>
